X:964
T:B.C. Centennial
C:Ward Allen
M:2/4
L:1/16
K:D
d2|A,DCE DFEG|FAGB Adce|ddfd gfed|cABd AGFE|
A,DCE DFEG|FAGB Adce|ddfd gece|d2f2 d2:|
|:fg|abag fdef|geag fdfg|abag fdef|gece ddfg|
abag fdef|geag fdfg|abag fdef|gece d2:|


